X:1
T: Captain Charles Leith Hay
C:Alexander Walker
R:Reel
Q: 232
K:E
M:4/4
L:1/8
|:f|e2 ce BG Gc|BG eG B2-Bd|e2 ce dB Bc|BG FE F2-Fd|
e2 ce BG Gc|BG eG B2-Be|gb fg ef gf|ec BG F2-Ff|
ge Be ce Be|de fg a2-ab|ge Ee ce BG|AG FE DF Ff|
ge Be ce Be|de fg a2-ab|ge fd ec BG|Ac Bd ea g:|
